X: 6589
T: Catskill Pines, The
R: reel
M: 4/4
K: Gmajor
|:"Em"B2EF "Em/D#"GAB^c|"Em/D"dB^cd "Em/C#"efga|"Em"beaf g2eg|1 "Bm"fdB^c dBA^c:|2 "Bm"fdB^c dBed||
K:C
|:"Am"eAAG ABcd|e^fge "Bm7"a2gf|"Am/C"eAAG ABcd|"Em"(3e^fg ^fd e2Bd|
"Am"eAAG "Bm7"ABcd|"C"e^fge "D"a3b|"Am"c'2 ba "Em"gee^f|"Em"g2ba geBd:|
|:"Am"A2ab age^f|gabg "G/B"c'bag|1 "Am/C"abag "Am/D"eage|"Em"dged BedB:|2 "Am/C"abag "Am/D"e2ba|"Em"geB^c "Bm"de^fd||

